!!!OTL: 100. Ringeltanz aus der Prov. Sachsen.
!!!ARE: Europa, Mitteleuropa, Deutschland, Provinz Sachsen
!!!SCT: K2100
!!!TXL: @@DE
!!!YEM: Copyright 1995, estate of Helmut Schaffrath.
**kern	**text
*clefG2	*
*M2/4	*
*k[f#c#]	*
*D:	*
=1	=1
{8a	Ro-
8a	-he,
8b/	ro-
8b/	-he
=2	=2
4a	Sei-
4f#}	-de,
=3	=3
{8a	fpinnt
8a	ein
8b/	Fäd-
8b/	-chen
=4	=4
4a	Wei-
4f#}	-de,
=5	=5
{4a	ſo
4f#	klar
=6	=6
8a	wie
8a	ein
4f#}	Haar,
=7	=7
{8a	hat
8a	ge-
8b/	-ſpon-
8b/	-nen
=8	=8
8a	ſie-
8a	-ben
4f#}	Jahr
=9||	=9||
{8a	Sie-
8a	-ben
8b/	Jahr
8b/	ſind
=10	=10
8a	um
8a	und
4f#}	um,
=11	=11
{8a	Jung-
8a	-fer
8b/	R.
8b/	R.
=12	=12
8a	dreht
8a	ſich
4f#}	um.
=13||	=13||
{8a	Weil
8a	ſie
8b	ſich
8b	hat
=14	=14
8a	umgedreht,
8a	.
8f#	.
16f#	hat
16f#}	ihr
=15	=15
{8a	Lieb-
8a	-ſter
8b	ihr
8b	'nen
=16	=16
8a	Kranʒ
8a	beſchert
8f#	.
16f#	von
16f#}	.
=17	=17
{8a	lau-
8a	-ter
8b/	grünen
8b/	.
=18	=18
4a	Blät-
8f#	-tern.
8r}	.
=19||	=19||
{8a	Ei
8a	wie
8f#	wird
8d	ihr
=20	=20
8b/	Bräutgam
8b/	.
8a	la-
8a}	-chen,
=21	=21
{8g	wenn
8g	Em-
8f#	-ilie
8f#	wird
=22	=22
8e	Hoch-
8a	-ʒeit
8d	ma-
8d}	-chen.
==	==
!!!AGN: Kinder - Lied, Reigen, Tanz - Spiel
!!!ONB: ESAC (Essen Associative Code) Database: KINDER
!!!AMT: simple duple
!!!AIN: vox
!!!EED: Helmut Schaffrath
!!!EEV: 1.0
!!!GTL: Zweites Buch. Kinderspiel: 2. Reigen und Tanzspiele. / B. Ringeltanz mit Umkehr des Kreises.
!!@@COMMENT:"Text aus Jüterbogk: Mannhardt 514. Wegener 62, ohne die ʒwei letʒten Ʒeilen."
!!@@END:
!!!URL-scan: https://archive.org/details/DeutschesKinderliedUndKinderspiel/page/449/mode/1up
!!!ENC: Anna Maria Matuszewska
!!!EEV: 2024/03/09
*-	*-
